assets/logos/icons/group.svg

<svg height="24" viewBox="0 0 24 24" width="24" xmlns="http://www.w3.org/2000/svg"><path d="m6.6 9.36318408c.8.59701492 1.4 1.49253732 1.4 2.58706472 0 1.0945273-.6 1.9900497-1.4 2.5870646.1.199005.2.39801.4.597015.5.7960199 1.2 1.3930348 1.9 1.8905472l.6.2985075c.5-.7960199 1.4-1.3930348 2.5-1.3930348s2 .5970149 2.6 1.3930348c.2-.0995025.4-.199005.5-.2985075.8-.4975124 1.4-1.0945273 1.9-1.8905472.1-.199005.3-.4975125.4-.6965175-.8-.4975124-1.4-1.3930348-1.4-2.4875621 0-1.0945274.6-1.9900498 1.4-2.58706472-.1-.19900498-.2-.39800995-.4-.59701493-.5-.69651741-1.1-1.39303482-1.8-1.79104477-.2-.09950249-.4-.29850746-.7-.39800995-.5.7960199-1.4 1.39303482-2.5 1.39303482s-2-.59701492-2.6-1.39303482c-.2.09950249-.4.19900497-.6.29850746-.8.59701493-1.5 1.29353234-2 2.08955224-.1.19900497-.2.29850746-.2.39800995zm-2-.39800995c.1-.29850746.3-.69651741.5-.99502488.6-1.09452736 1.6-2.08955224 2.7-2.78606965.3-.19900497.8-.39800995 1.2-.59701492.2-1.49253732 1.5-2.58706468 3-2.58706468s2.8 1.09452736 3 2.58706468c.5.19900497.9.39800995 1.3.69651741 1 .59701492 1.8 1.39303483 2.4 2.3880597.3.39800995.5.89552239.7 1.29353234 1.5.19900497 2.6 1.49253727 2.6 2.98507467 0 1.4925373-1.1 2.7860696-2.6 2.9850746-.2.4975124-.4.9950249-.7 1.3930348-.7.9950249-1.6 1.8905473-2.6 2.4875622-.4.199005-.7.3980099-1.1.5970149-.2 1.4925373-1.5 2.5870647-3 2.5870647s-2.8-1.0945274-3-2.5870647c-.4-.199005-.8-.3980099-1.2-.5970149-1-.5970149-1.9-1.4925373-2.6-2.4875622-.2-.4975124-.4-.9950249-.6-1.3930348-1.5-.199005-2.6-1.4925373-2.6-2.9850746 0-1.4925374 1.1-2.7860697 2.6-2.98507467zm7.4-2.98507463c.6 0 1-.39800995 1-.99502487 0-.59701493-.4-.99502488-1-.99502488s-1 .39800995-1 .99502488c0 .59701492.4.99502487 1 .99502487zm7 6.9651741c.6 0 1-.3980099 1-.9950248 0-.597015-.4-.9950249-1-.9950249s-1 .3980099-1 .9950249c0 .5970149.4.9950248 1 .9950248zm-7 6.9651742c.6 0 1-.39801 1-.9950249s-.4-.9950249-1-.9950249-1 .39801-1 .9950249.4.9950249 1 .9950249zm-7-6.9651742c.6 0 1-.3980099 1-.9950248 0-.597015-.4-.9950249-1-.9950249s-1 .3980099-1 .9950249c0 .5970149.4.9950248 1 .9950248z" fill="#492f5c" fill-rule="evenodd"/></svg>

<svg xmlns="http://www.w3.org/2000/svg" width="24" height="24" viewBox="0 0 24 24">
  <path fill="#492F5C" fill-rule="evenodd" d="M6.6,9.36318408 C7.4,9.960199 8,10.8557214 8,11.9502488 C8,13.0447761 7.4,13.9402985 6.6,14.5373134 C6.7,14.7363184 6.8,14.9353234 7,15.1343284 C7.5,15.9303483 8.2,16.5273632 8.9,17.0248756 C9.1,17.1243781 9.3,17.2238806 9.5,17.3233831 C10,16.5273632 10.9,15.9303483 12,15.9303483 C13.1,15.9303483 14,16.5273632 14.6,17.3233831 C14.8,17.2238806 15,17.1243781 15.1,17.0248756 C15.9,16.5273632 16.5,15.9303483 17,15.1343284 C17.1,14.9353234 17.3,14.6368159 17.4,14.4378109 C16.6,13.9402985 16,13.0447761 16,11.9502488 C16,10.8557214 16.6,9.960199 17.4,9.36318408 C17.3,9.1641791 17.2,8.96517413 17,8.76616915 C16.5,8.06965174 15.9,7.37313433 15.2,6.97512438 C15,6.87562189 14.8,6.67661692 14.5,6.57711443 C14,7.37313433 13.1,7.97014925 12,7.97014925 C10.9,7.97014925 10,7.37313433 9.4,6.57711443 C9.2,6.67661692 9,6.7761194 8.8,6.87562189 C8,7.47263682 7.3,8.16915423 6.8,8.96517413 C6.7,9.1641791 6.6,9.26368159 6.6,9.36318408 Z M4.6,8.96517413 C4.7,8.66666667 4.9,8.26865672 5.1,7.97014925 C5.7,6.87562189 6.7,5.88059701 7.8,5.1840796 C8.1,4.98507463 8.6,4.78606965 9,4.58706468 C9.2,3.09452736 10.5,2 12,2 C13.5,2 14.8,3.09452736 15,4.58706468 C15.5,4.78606965 15.9,4.98507463 16.3,5.28358209 C17.3,5.88059701 18.1,6.67661692 18.7,7.67164179 C19,8.06965174 19.2,8.56716418 19.4,8.96517413 C20.9,9.1641791 22,10.4577114 22,11.9502488 C22,13.4427861 20.9,14.7363184 19.4,14.9353234 C19.2,15.4328358 19,15.9303483 18.7,16.3283582 C18,17.3233831 17.1,18.2189055 16.1,18.8159204 C15.7,19.0149254 15.4,19.2139303 15,19.4129353 C14.8,20.9054726 13.5,22 12,22 C10.5,22 9.2,20.9054726 9,19.4129353 C8.6,19.2139303 8.2,19.0149254 7.8,18.8159204 C6.8,18.2189055 5.9,17.3233831 5.2,16.3283582 C5,15.8308458 4.8,15.3333333 4.6,14.9353234 C3.1,14.7363184 2,13.4427861 2,11.9502488 C2,10.4577114 3.1,9.1641791 4.6,8.96517413 Z M12,5.9800995 C12.6,5.9800995 13,5.58208955 13,4.98507463 C13,4.3880597 12.6,3.99004975 12,3.99004975 C11.4,3.99004975 11,4.3880597 11,4.98507463 C11,5.58208955 11.4,5.9800995 12,5.9800995 Z M19,12.9452736 C19.6,12.9452736 20,12.5472637 20,11.9502488 C20,11.3532338 19.6,10.9552239 19,10.9552239 C18.4,10.9552239 18,11.3532338 18,11.9502488 C18,12.5472637 18.4,12.9452736 19,12.9452736 Z M12,19.9104478 C12.6,19.9104478 13,19.5124378 13,18.9154229 C13,18.318408 12.6,17.920398 12,17.920398 C11.4,17.920398 11,18.318408 11,18.9154229 C11,19.5124378 11.4,19.9104478 12,19.9104478 Z M5,12.9452736 C5.6,12.9452736 6,12.5472637 6,11.9502488 C6,11.3532338 5.6,10.9552239 5,10.9552239 C4.4,10.9552239 4,11.3532338 4,11.9502488 C4,12.5472637 4.4,12.9452736 5,12.9452736 Z"/>
</svg>
